whatsapp/whatsapp.svg

<svg xmlns="http://www.w3.org/2000/svg" style="isolation:isolate" width="800" height="800"><defs><clipPath id="a"><path d="M0 0h800v800H0z"/></clipPath></defs><g clip-path="url(#a)"><path d="M787.59 800H12.41C5.556 800 0 793.332 0 785.108V14.892C0 6.667 5.556 0 12.41 0h775.18C794.444 0 800 6.667 800 14.892v770.216c0 8.224-5.556 14.892-12.41 14.892z" fill="#25D366"/><path d="M508.558 450.429c-5.888-2.946-34.835-17.189-40.233-19.156-5.396-1.965-9.322-2.945-13.247 2.947-3.925 5.894-15.209 19.157-18.644 23.087-3.434 3.929-6.869 4.422-12.757 1.473-5.887-2.946-24.859-9.163-47.349-29.224-17.503-15.613-29.32-34.893-32.754-40.788-3.435-5.895-.367-9.081 2.581-12.016 2.649-2.639 5.889-6.878 8.832-10.316 2.944-3.437 3.925-5.895 5.888-9.822 1.962-3.931.982-7.368-.492-10.315-1.471-2.947-13.247-31.93-18.152-43.72-4.78-11.48-9.634-9.925-13.248-10.107-3.431-.171-7.361-.207-11.285-.207-3.925 0-10.304 1.474-15.702 7.367-5.396 5.895-20.607 20.14-20.607 49.12 0 28.983 21.098 56.979 24.042 60.909 2.945 3.931 41.518 63.401 100.584 88.905 14.047 6.068 25.015 9.69 33.566 12.403 14.104 4.482 26.94 3.849 37.085 2.333 11.312-1.689 34.836-14.242 39.743-27.995 4.906-13.757 4.906-25.545 3.433-28-1.471-2.456-5.396-3.93-11.284-6.878zM401.126 597.117h-.079c-35.145-.013-69.616-9.456-99.687-27.3l-7.152-4.245-74.128 19.445 19.786-72.274-4.656-7.411c-19.606-31.183-29.962-67.224-29.946-104.232.043-107.987 87.906-195.843 195.94-195.843 52.314.018 101.489 20.417 138.469 57.439 36.978 37.02 57.331 86.229 57.31 138.562-.044 107.996-87.905 195.859-195.857 195.859zm166.69-362.552c-44.489-44.541-103.655-69.081-166.692-69.107-129.884 0-235.595 105.703-235.647 235.627-.017 41.532 10.834 82.069 31.455 117.807L163.502 641l124.919-32.768c34.418 18.773 73.17 28.669 112.609 28.681h.097c129.871 0 235.59-105.713 235.643-235.639.024-62.965-24.464-122.169-68.954-166.709" fill-rule="evenodd" fill="#FFF"/></g></svg>

<?xml version="1.0" encoding="UTF-8" standalone="no"?><svg xmlns="http://www.w3.org/2000/svg" xmlns:xlink="http://www.w3.org/1999/xlink" style="isolation:isolate" viewBox="0 0 800 800" width="800" height="800"><defs><clipPath id="_clipPath_A3g8G5hPEGG2L0B6hFCxamU4cc8rfqzQ"><rect width="800" height="800"/></clipPath></defs><g clip-path="url(#_clipPath_A3g8G5hPEGG2L0B6hFCxamU4cc8rfqzQ)"><g><path d=" M 787.59 800 L 12.41 800 C 5.556 800 0 793.332 0 785.108 L 0 14.892 C 0 6.667 5.556 0 12.41 0 L 787.59 0 C 794.444 0 800 6.667 800 14.892 L 800 785.108 C 800 793.332 794.444 800 787.59 800 Z " fill="rgb(37,211,102)"/></g><g><path d=" M 508.558 450.429 C 502.67 447.483 473.723 433.24 468.325 431.273 C 462.929 429.308 459.003 428.328 455.078 434.22 C 451.153 440.114 439.869 453.377 436.434 457.307 C 433 461.236 429.565 461.729 423.677 458.78 C 417.79 455.834 398.818 449.617 376.328 429.556 C 358.825 413.943 347.008 394.663 343.574 388.768 C 340.139 382.873 343.207 379.687 346.155 376.752 C 348.804 374.113 352.044 369.874 354.987 366.436 C 357.931 362.999 358.912 360.541 360.875 356.614 C 362.837 352.683 361.857 349.246 360.383 346.299 C 358.912 343.352 347.136 314.369 342.231 302.579 C 337.451 291.099 332.597 292.654 328.983 292.472 C 325.552 292.301 321.622 292.265 317.698 292.265 C 313.773 292.265 307.394 293.739 301.996 299.632 C 296.6 305.527 281.389 319.772 281.389 348.752 C 281.389 377.735 302.487 405.731 305.431 409.661 C 308.376 413.592 346.949 473.062 406.015 498.566 C 420.062 504.634 431.03 508.256 439.581 510.969 C 453.685 515.451 466.521 514.818 476.666 513.302 C 487.978 511.613 511.502 499.06 516.409 485.307 C 521.315 471.55 521.315 459.762 519.842 457.307 C 518.371 454.851 514.446 453.377 508.558 450.429 Z  M 401.126 597.117 L 401.047 597.117 C 365.902 597.104 331.431 587.661 301.36 569.817 L 294.208 565.572 L 220.08 585.017 L 239.866 512.743 L 235.21 505.332 C 215.604 474.149 205.248 438.108 205.264 401.1 C 205.307 293.113 293.17 205.257 401.204 205.257 C 453.518 205.275 502.693 225.674 539.673 262.696 C 576.651 299.716 597.004 348.925 596.983 401.258 C 596.939 509.254 509.078 597.117 401.126 597.117 Z  M 567.816 234.565 C 523.327 190.024 464.161 165.484 401.124 165.458 C 271.24 165.458 165.529 271.161 165.477 401.085 C 165.46 442.617 176.311 483.154 196.932 518.892 L 163.502 641 L 288.421 608.232 C 322.839 627.005 361.591 636.901 401.03 636.913 L 401.126 636.913 L 401.127 636.913 C 530.998 636.913 636.717 531.2 636.77 401.274 C 636.794 338.309 612.306 279.105 567.816 234.565" fill-rule="evenodd" fill="rgb(255,255,255)"/></g></g></svg>
